X:35
T:Polska efter Pelle Pettersson
R:sl\"angpolska
H:Pelle Pettersson var klarinettspelman i N\"arke p{\aa} 1800-talet
A:N\"arke
D:Bl{\aa} Bergens Borduner
Z:id:hn-sp-35
M:3/4
L:1/16
K:A
c2e2 c2c2 c4 | c2Bc d2c2 B2A2 | AGFG A2E2 F2E2 |
c2e2 c2c2 c4 | c2Bc d2c2 B2A2 | GABc B4 A4 :|
|: A2c2 c2A2 BAFA | G2B2 B2G2 AGFG | A2c2 c2A2 BAFA |
G2B2 B2G2 AGFG | A2c2 G2A2 F2GF | EFGE F4 F4 :|
<end>
<start>
